img/link-icon-forbes.svg

<svg width="650" height="650" fill="none" xmlns="http://www.w3.org/2000/svg"><path fill="#000" d="M0 0H650V650H0z"/><path d="M509.281 102.286H137.4v18.594l19.524 1.86c14.875 2.789 25.102 8.367 31.61 16.734 6.508 9.297 10.227 24.172 11.156 44.626 7.438 100.408 7.438 194.307 0 280.77-1.859 20.453-5.578 35.328-11.156 44.625-6.508 9.297-16.735 14.875-31.61 16.735l-19.524 2.789v18.594h239.863v-18.594l-25.102-1.86c-14.875-1.859-25.102-8.367-31.61-16.734-6.507-9.297-10.226-24.172-11.156-44.626-2.789-37.188-4.648-79.954-4.648-127.369l50.203.93c26.962.93 45.556 21.383 54.853 62.29h18.594V250.109h-18.594c-9.297 39.977-26.962 60.43-54.853 61.36l-50.203.93c0-83.674 1.859-143.174 4.648-179.433h73.446c52.064 0 87.392 33.47 107.846 100.408L513 226.866l-3.719-124.58z" fill="#fff"/></svg>

<svg width="650" height="650" viewBox="0 0 650 650" fill="none" xmlns="http://www.w3.org/2000/svg">
<rect width="650" height="650" fill="black"/>
<path d="M509.281 102.286H137.4V120.88L156.924 122.74C171.799 125.529 182.026 131.107 188.534 139.474C195.042 148.771 198.761 163.646 199.69 184.1C207.128 284.508 207.128 378.407 199.69 464.87C197.831 485.323 194.112 500.198 188.534 509.495C182.026 518.792 171.799 524.37 156.924 526.23L137.4 529.019V547.613H377.263V529.019L352.161 527.159C337.286 525.3 327.059 518.792 320.551 510.425C314.044 501.128 310.325 486.253 309.395 465.799C306.606 428.611 304.747 385.845 304.747 338.43L354.95 339.36C381.912 340.29 400.506 360.743 409.803 401.65H428.397V250.109H409.803C400.506 290.086 382.841 310.539 354.95 311.469L304.747 312.399C304.747 228.725 306.606 169.225 309.395 132.966H382.841C434.905 132.966 470.233 166.436 490.687 233.374L513 226.866L509.281 102.286Z" fill="white"/>
</svg>
